X: 32844
T: Port Na bPúcaí
R: waltz
M: 3/4
K: Dmajor
d4{e}dc JA2-|A8-|A8-|A JB/{c}B/ {AB}A3{c}A/G/E2|JF6 JG2-|
G4 (3A/{c}A/G/JA3-|A8-|A3z4G|ABB2J=c4-|c2^cd{e}dJB3|{c}B AJGB~A4-|
A8-|A3z4 d|cd3J(3edc d{e}d/c/|JA4{c}A4-|A3-A2J^A2JB|
A/B/{AB}AB/A/GEF2JG-|G8-|G3z2GJA2-|A3-A2{c}AFJG-|G8-|G3zJA4|
{c}A/G/F/z/JG6-|!>!G8|z3GJA4|JB2Jc4d2-|d4z3{E}e-|ef{a}g2(3.f.f.f(3.f.f.f|
f{a}g6Ja-|a8-|a4-a3z|z2{a}g/a/gf{a}f{a}g2|{a}g2{a}ge/f/e4-|e3z2e2e|
Jf{a}f2{a}f/e/dJc3-|c8-|!>!c4z4|zGJA2BBJc2-|c2d3z2{D}e-|ef!>!g2f3{a}f|
Jg3J^g2Ja3-|a8-|a2z2aJ.b/aJ.b/{c'}a-|a{c'}a/g/eJf2g/a/{a}g2-|gf/e/e3-e2z|
z{a}e/d/c/d/Je3{a}e/d/c-|c/d/e{a}e/d/c/d/d2{e}d2-|d8-|
>!dz4GJA2|BBJ=c^cd4|z2{D}dJe2fg2-|f4{a}fJg3-|gJa4-a3-|a6z2|
z(3g/a/g/Jf a/{c'}a/g3f/e/|e4-e3z|ze{a}f2g<fed-|
d6c/d/Je-|e{a}(3e/d/c/ d/e/d3-d2-|dz2c/d/J{D}e4-|
e{a}(3e/d/c/ d/e{a}(3e/d/c/ {a}e/d2{a}d/c/|JA8-|A8|z3A2JB2A/B/|A/ B//A// G E{A}EJF4-|
F2{A}G6|A8-|A4-A3z|z3BBJc3-|c3d/d/{c}AJB3-|B/A/JG2F/E/GJA3-|
A8-|A2z6|d3-d2Je2{a}e/d/|(3c/d/Je/ d/c/{a}d2{a}dcJA2-|
A8-|A2JBA/B/{AB}A2GE|{A}F3JG3-G2-|G6z2|z2GA3-A2-|
A B/<A/G/F/JG3-G2|-G{A}G6z|GJA3{c}AFJG2-|G8-|G8-|G6z2|

